packages/foundations/assets/icons/functional/images/date & time/alarm_clock_32.svg

<svg width="32" height="32" viewBox="0 0 32 32" fill="none" xmlns="http://www.w3.org/2000/svg">
<g clip-path="url(#clip0_185_629)">
<path fill-rule="evenodd" clip-rule="evenodd" d="M23.3438 4.01562C25.9062 4.01562 28 6.10942 28 8.67192C28 10.0781 27.375 11.3594 26.3438 12.2656C26.75 13.4219 27 14.6719 27 15.9844C27 18.7031 26 21.1719 24.375 23.1094L26.8125 26.3906C26.9375 26.5781 27 26.7656 27 26.9844C27 27.5469 26.5625 27.9844 26 27.9844C25.6875 27.9844 25.375 27.8594 25.1875 27.5781L22.9375 24.5156C21.0312 26.0469 18.625 26.9844 16 26.9844C13.375 26.9844 10.9688 26.0469 9.0625 24.5156L6.8125 27.5781C6.625 27.8594 6.3125 27.9844 6 27.9844C5.4375 27.9844 5 27.5156 5 26.9844C5 26.7656 5.0625 26.5781 5.1875 26.3906L7.625 23.1094C6 21.1719 5 18.7031 5 15.9844C5 14.6719 5.25 13.4219 5.6562 12.2344C4.625 11.3594 4 10.0781 4 8.67192C4 6.10942 6.0938 4.01562 8.6562 4.01562C10.0625 4.01562 11.375 4.60943 12.25 5.67193C13.4062 5.23443 14.6875 5.01562 16 5.01562C17.3125 5.01562 18.5938 5.23443 19.75 5.67193C20.625 4.60943 21.9375 4.01562 23.3438 4.01562ZM16 7.01562C11.0312 7.01562 7 11.0469 7 15.9844C7 20.9531 11.0312 24.9844 16 24.9844C20.9688 24.9844 25 20.9531 25 15.9844C25 11.0469 20.9688 7.01562 16 7.01562ZM23.3438 6.01562C22.7188 6.01562 22.125 6.20312 21.6562 6.57812C23.1875 7.51562 24.5 8.79693 25.4062 10.3281C25.7812 9.85943 26 9.29692 26 8.67192C26 7.20312 24.8125 6.01562 23.3438 6.01562ZM8.6562 6.01562C7.1875 6.01562 6 7.20312 6 8.67192C6 9.29692 6.2188 9.85943 6.5938 10.3281C7.5 8.79693 8.7812 7.51562 10.3438 6.57812C9.875 6.20312 9.2812 6.01562 8.6562 6.01562ZM16 8.98442C16.5625 8.98442 17 9.45312 17 9.98442V15.5781L19.6562 18.2344C19.8438 18.4219 19.9375 18.6719 19.9375 18.9219C19.9375 19.5469 19.4688 19.9219 18.9375 19.9219C18.6875 19.9219 18.4375 19.8281 18.2188 19.6406L15.2812 16.7031C15.0938 16.5156 15 16.2656 15 15.9844V9.98442C15 9.45312 15.4375 8.98442 16 8.98442Z" fill="#1A1C1F"/>
</g>
<defs>
<clipPath id="clip0_185_629">
<rect width="32" height="32" fill="white"/>
</clipPath>
</defs>
</svg>

<svg xmlns="http://www.w3.org/2000/svg" width="32" height="32" fill="none"><g clip-path="url(#a)"><path fill="#1A1C1F" fill-rule="evenodd" d="M23.344 4.016A4.67 4.67 0 0 1 28 8.672c0 1.406-.625 2.687-1.656 3.594.406 1.156.656 2.406.656 3.718 0 2.72-1 5.188-2.625 7.125l2.438 3.282c.125.187.187.375.187.593 0 .563-.437 1-1 1-.312 0-.625-.125-.812-.406l-2.25-3.062c-1.907 1.53-4.313 2.468-6.938 2.468s-5.031-.937-6.937-2.468l-2.25 3.062c-.188.281-.5.406-.813.406a1.007 1.007 0 0 1-.812-1.593l2.437-3.282C6 21.172 5 18.703 5 15.984c0-1.312.25-2.562.656-3.75A4.66 4.66 0 0 1 4 8.672a4.67 4.67 0 0 1 4.656-4.656c1.406 0 2.719.593 3.594 1.656 1.156-.438 2.438-.656 3.75-.656 1.313 0 2.594.218 3.75.656.875-1.063 2.188-1.656 3.594-1.656m-7.344 3c-4.969 0-9 4.03-9 8.968 0 4.97 4.031 9 9 9s9-4.03 9-9c0-4.937-4.031-8.968-9-8.968m7.344-1c-.625 0-1.219.187-1.688.562 1.532.938 2.844 2.219 3.75 3.75A2.62 2.62 0 0 0 26 8.672a2.654 2.654 0 0 0-2.656-2.656m-14.688 0A2.654 2.654 0 0 0 6 8.672c0 .625.219 1.187.594 1.656a10.8 10.8 0 0 1 3.75-3.75c-.469-.375-1.063-.562-1.688-.562M16 8.984c.563 0 1 .47 1 1v5.594l2.656 2.656a.97.97 0 0 1 .282.688c0 .625-.47 1-1 1a1.1 1.1 0 0 1-.72-.281l-2.937-2.938a1 1 0 0 1-.281-.719v-6c0-.53.438-1 1-1" clip-rule="evenodd"/></g><defs><clipPath id="a"><path fill="#fff" d="M0 0h32v32H0z"/></clipPath></defs></svg>
